public/images/DarkLogo.svg

<svg width="171" height="36" viewBox="0 0 171 36" fill="none" xmlns="http://www.w3.org/2000/svg">
<path fill-rule="evenodd" clip-rule="evenodd" d="M30.9554 9.95143C31.5656 18.1885 5.97266 35.7295 5.97266 21.2394C5.97266 10.5111 10.2053 3.37674 16.3502 1.12758C17.6906 0.636986 21.0538 0.585883 23.6636 1.12758C27.7732 2.20482 30.6252 5.49337 30.9554 9.95143Z" fill="white"/>
<path fill-rule="evenodd" clip-rule="evenodd" d="M35.7703 16.2769C31.5668 25.1603 22.5216 31.3053 12.0413 31.3053C9.89175 31.3053 7.80261 31.0468 5.80322 30.5592C8.99119 33.6639 13.346 35.5764 18.1475 35.5764C27.92 35.5764 35.8421 27.6543 35.8421 17.8818C35.8421 17.3408 35.8178 16.8055 35.7703 16.2769Z" fill="white"/>
<path fill-rule="evenodd" clip-rule="evenodd" d="M15.26 0.187012C6.54869 1.88857 0 9.18531 0 17.9287C0 20.9908 0.803206 23.8755 2.22122 26.4045C2.0656 25.266 1.98535 24.1051 1.98535 22.9265C1.98535 13.3496 7.2841 4.94321 15.26 0.187012Z" fill="white"/>
<circle cx="42.2243" cy="5.64669" r="5.64669" fill="white"/>
<path d="M59.1066 26.7633V32.6364H58.3398V26.7633H59.1066Z" fill="white"/>
<path d="M66.0422 32.6364H65.2754L62.1914 27.9599V32.6364H61.4246V26.7549H62.1914L65.2754 31.423V26.7549H66.0422V32.6364Z" fill="white"/>
<path d="M70.2227 32.6954C69.8351 32.6954 69.4868 32.628 69.1778 32.4932C68.8745 32.3527 68.6357 32.1617 68.4616 31.9202C68.2875 31.673 68.1976 31.3893 68.192 31.0691H69.0093C69.0374 31.3444 69.1497 31.5775 69.3464 31.7685C69.5486 31.9539 69.8407 32.0466 70.2227 32.0466C70.5878 32.0466 70.8743 31.9567 71.0822 31.7769C71.2956 31.5916 71.4024 31.3556 71.4024 31.0691C71.4024 30.8444 71.3406 30.6619 71.217 30.5214C71.0934 30.381 70.9389 30.2743 70.7535 30.2012C70.5682 30.1282 70.3182 30.0496 70.0036 29.9653C69.616 29.8642 69.3042 29.7631 69.0683 29.662C68.838 29.5608 68.6385 29.4036 68.47 29.1901C68.3071 28.971 68.2257 28.6789 68.2257 28.3138C68.2257 27.9936 68.3071 27.7099 68.47 27.4627C68.6329 27.2155 68.8604 27.0245 69.1525 26.8897C69.4503 26.7549 69.7901 26.6875 70.1721 26.6875C70.7226 26.6875 71.172 26.8251 71.5203 27.1004C71.8742 27.3756 72.0736 27.7408 72.1186 28.1958H71.276C71.2479 27.9711 71.1299 27.7745 70.9221 27.606C70.7142 27.4318 70.439 27.3447 70.0963 27.3447C69.7761 27.3447 69.5149 27.429 69.3126 27.5975C69.1104 27.7604 69.0093 27.9908 69.0093 28.2885C69.0093 28.5019 69.0683 28.6761 69.1863 28.8109C69.3098 28.9457 69.4587 29.0497 69.6328 29.1227C69.8126 29.1901 70.0626 29.2687 70.3828 29.3586C70.7704 29.4653 71.0822 29.5721 71.3181 29.6788C71.554 29.7799 71.7563 29.94 71.9248 30.1591C72.0933 30.3726 72.1776 30.6647 72.1776 31.0354C72.1776 31.3219 72.1017 31.5916 71.9501 31.8444C71.7984 32.0971 71.5737 32.3022 71.276 32.4595C70.9782 32.6168 70.6271 32.6954 70.2227 32.6954Z" fill="white"/>
<path d="M78.2437 28.4823C78.2437 28.971 78.0752 29.3783 77.7382 29.7041C77.4067 30.0243 76.8983 30.1844 76.213 30.1844H75.0839V32.6364H74.3171V26.7633H76.213C76.8759 26.7633 77.3786 26.9234 77.7213 27.2436C78.0696 27.5638 78.2437 27.9767 78.2437 28.4823ZM76.213 29.5524C76.6399 29.5524 76.9545 29.4597 77.1568 29.2744C77.359 29.089 77.4601 28.825 77.4601 28.4823C77.4601 27.7576 77.0444 27.3953 76.213 27.3953H75.0839V29.5524H76.213Z" fill="white"/>
<path d="M80.9747 26.7633V32.6364H80.2079V26.7633H80.9747Z" fill="white"/>
<path d="M86.3851 32.6364L84.9864 30.2349H84.0595V32.6364H83.2927V26.7633H85.1886C85.6324 26.7633 86.0059 26.8392 86.3093 26.9908C86.6183 27.1425 86.8486 27.3476 87.0002 27.606C87.1519 27.8644 87.2278 28.1593 87.2278 28.4907C87.2278 28.8952 87.1098 29.2519 86.8738 29.5608C86.6435 29.8698 86.2952 30.0748 85.829 30.176L87.3036 32.6364H86.3851ZM84.0595 29.6198H85.1886C85.6043 29.6198 85.9161 29.5187 86.1239 29.3165C86.3318 29.1086 86.4357 28.8334 86.4357 28.4907C86.4357 28.1424 86.3318 27.8728 86.1239 27.6818C85.9217 27.4908 85.6099 27.3953 85.1886 27.3953H84.0595V29.6198Z" fill="white"/>
<path d="M90.1971 26.7633V32.6364H89.4304V26.7633H90.1971Z" fill="white"/>
<path d="M97.1327 32.6364H96.3659L93.2819 27.9599V32.6364H92.5152V26.7549H93.2819L96.3659 31.423V26.7549H97.1327V32.6364Z" fill="white"/>
<path d="M103.9 28.4654C103.737 28.1228 103.501 27.8587 103.192 27.6734C102.883 27.4824 102.524 27.3869 102.114 27.3869C101.704 27.3869 101.333 27.4824 101.001 27.6734C100.676 27.8587 100.417 28.1284 100.226 28.4823C100.041 28.8306 99.9481 29.235 99.9481 29.6957C99.9481 30.1563 100.041 30.5608 100.226 30.909C100.417 31.2573 100.676 31.527 101.001 31.718C101.333 31.9033 101.704 31.996 102.114 31.996C102.687 31.996 103.159 31.8247 103.529 31.482C103.9 31.1394 104.116 30.6759 104.178 30.0917H101.836V29.4682H104.995V30.058C104.951 30.5411 104.799 30.9849 104.54 31.3893C104.282 31.7882 103.942 32.1056 103.521 32.3415C103.1 32.5718 102.631 32.687 102.114 32.687C101.569 32.687 101.072 32.5606 100.622 32.3078C100.173 32.0494 99.8161 31.6927 99.5521 31.2377C99.2937 30.7827 99.1645 30.2687 99.1645 29.6957C99.1645 29.1227 99.2937 28.6087 99.5521 28.1537C99.8161 27.693 100.173 27.3363 100.622 27.0835C101.072 26.8251 101.569 26.6959 102.114 26.6959C102.737 26.6959 103.288 26.8504 103.765 27.1594C104.248 27.4683 104.599 27.9037 104.819 28.4654H103.9Z" fill="white"/>
<path d="M111.045 26.7633V32.6364H110.278V26.7633H111.045Z" fill="white"/>
<path d="M117.98 32.6364H117.214L114.13 27.9599V32.6364H113.363V26.7549H114.13L117.214 31.423V26.7549H117.98V32.6364Z" fill="white"/>
<path d="M124.916 32.6364H124.149L121.065 27.9599V32.6364H120.299V26.7549H121.065L124.149 31.423V26.7549H124.916V32.6364Z" fill="white"/>
<path d="M129.897 32.6954C129.352 32.6954 128.855 32.569 128.406 32.3162C127.956 32.0578 127.6 31.7011 127.336 31.2461C127.077 30.7855 126.948 30.2687 126.948 29.6957C126.948 29.1227 127.077 28.6087 127.336 28.1537C127.6 27.693 127.956 27.3363 128.406 27.0835C128.855 26.8251 129.352 26.6959 129.897 26.6959C130.448 26.6959 130.948 26.8251 131.397 27.0835C131.847 27.3363 132.2 27.6902 132.459 28.1452C132.717 28.6003 132.846 29.1171 132.846 29.6957C132.846 30.2743 132.717 30.7911 132.459 31.2461C132.2 31.7011 131.847 32.0578 131.397 32.3162C130.948 32.569 130.448 32.6954 129.897 32.6954ZM129.897 32.0297C130.307 32.0297 130.675 31.9342 131.001 31.7432C131.333 31.5522 131.591 31.2798 131.776 30.9259C131.967 30.572 132.063 30.1619 132.063 29.6957C132.063 29.2238 131.967 28.8137 131.776 28.4654C131.591 28.1115 131.335 27.8391 131.009 27.6481C130.684 27.4571 130.313 27.3616 129.897 27.3616C129.482 27.3616 129.111 27.4571 128.785 27.6481C128.459 27.8391 128.201 28.1115 128.01 28.4654C127.824 28.8137 127.732 29.2238 127.732 29.6957C127.732 30.1619 127.824 30.572 128.01 30.9259C128.201 31.2798 128.459 31.5522 128.785 31.7432C129.116 31.9342 129.487 32.0297 129.897 32.0297Z" fill="white"/>
<path d="M139.723 26.7633L137.507 32.6364H136.622L134.406 26.7633H135.224L137.069 31.8275L138.914 26.7633H139.723Z" fill="white"/>
<path d="M145.047 31.3304H142.485L142.013 32.6364H141.205L143.328 26.797H144.213L146.328 32.6364H145.519L145.047 31.3304ZM144.828 30.7068L143.766 27.7408L142.704 30.7068H144.828Z" fill="white"/>
<path d="M151.879 26.7633V27.3869H150.278V32.6364H149.511V27.3869H147.902V26.7633H151.879Z" fill="white"/>
<path d="M154.601 26.7633V32.6364H153.834V26.7633H154.601Z" fill="white"/>
<path d="M159.582 32.6954C159.037 32.6954 158.54 32.569 158.09 32.3162C157.641 32.0578 157.284 31.7011 157.02 31.2461C156.762 30.7855 156.632 30.2687 156.632 29.6957C156.632 29.1227 156.762 28.6087 157.02 28.1537C157.284 27.693 157.641 27.3363 158.09 27.0835C158.54 26.8251 159.037 26.6959 159.582 26.6959C160.132 26.6959 160.632 26.8251 161.081 27.0835C161.531 27.3363 161.885 27.6902 162.143 28.1452C162.402 28.6003 162.531 29.1171 162.531 29.6957C162.531 30.2743 162.402 30.7911 162.143 31.2461C161.885 31.7011 161.531 32.0578 161.081 32.3162C160.632 32.569 160.132 32.6954 159.582 32.6954ZM159.582 32.0297C159.992 32.0297 160.36 31.9342 160.685 31.7432C161.017 31.5522 161.275 31.2798 161.461 30.9259C161.652 30.572 161.747 30.1619 161.747 29.6957C161.747 29.2238 161.652 28.8137 161.461 28.4654C161.275 28.1115 161.02 27.8391 160.694 27.6481C160.368 27.4571 159.997 27.3616 159.582 27.3616C159.166 27.3616 158.795 27.4571 158.469 27.6481C158.144 27.8391 157.885 28.1115 157.694 28.4654C157.509 28.8137 157.416 29.2238 157.416 29.6957C157.416 30.1619 157.509 30.572 157.694 30.9259C157.885 31.2798 158.144 31.5522 158.469 31.7432C158.801 31.9342 159.172 32.0297 159.582 32.0297Z" fill="white"/>
<path d="M169.172 32.6364H168.405L165.321 27.9599V32.6364H164.554V26.7549H165.321L168.405 31.423V26.7549H169.172V32.6364Z" fill="white"/>
<path d="M71.1745 4.55047L65.1825 20.888H61.2034L55.2114 4.55047H58.7224L63.2164 17.5409L67.6869 4.55047H71.1745Z" fill="white"/>
<path d="M76.6032 4.55047V20.888H73.3264V4.55047H76.6032Z" fill="white"/>
<path d="M85.6689 21.0518C84.5298 21.0518 83.5 20.8568 82.5793 20.4667C81.6743 20.0766 80.9565 19.5148 80.4259 18.7814C79.8954 18.0481 79.6223 17.182 79.6067 16.1834H83.1177C83.1645 16.8543 83.3985 17.3849 83.8199 17.775C84.2568 18.1651 84.8497 18.3601 85.5987 18.3601C86.3633 18.3601 86.9641 18.1807 87.401 17.8218C87.8379 17.4473 88.0564 16.9636 88.0564 16.3706C88.0564 15.8869 87.9081 15.489 87.6117 15.1769C87.3152 14.8648 86.9407 14.6229 86.4882 14.4513C86.0512 14.264 85.4427 14.0612 84.6625 13.8427C83.6014 13.5307 82.7354 13.2264 82.0644 12.9299C81.409 12.6178 80.8395 12.1575 80.3557 11.5489C79.8876 10.9248 79.6535 10.0977 79.6535 9.06787C79.6535 8.10041 79.8954 7.25779 80.3791 6.54C80.8629 5.82221 81.5416 5.27606 82.4155 4.90156C83.2893 4.51146 84.288 4.31641 85.4115 4.31641C87.0967 4.31641 88.4621 4.72992 89.5076 5.55693C90.5686 6.36835 91.1538 7.50745 91.263 8.97424H87.6585C87.6273 8.41249 87.3854 7.95217 86.9329 7.59328C86.496 7.21878 85.9108 7.03153 85.1774 7.03153C84.5376 7.03153 84.0227 7.19537 83.6326 7.52306C83.2581 7.85074 83.0709 8.32667 83.0709 8.95084C83.0709 9.38775 83.2113 9.75445 83.4922 10.0509C83.7886 10.3318 84.1475 10.5659 84.5688 10.7531C85.0058 10.9248 85.6143 11.1276 86.3945 11.3617C87.4556 11.6738 88.3216 11.9858 88.9926 12.2979C89.6636 12.61 90.241 13.0781 90.7247 13.7023C91.2084 14.3265 91.4503 15.1457 91.4503 16.16C91.4503 17.0338 91.224 17.8452 90.7715 18.5942C90.319 19.3432 89.6558 19.944 88.782 20.3965C87.9081 20.8334 86.8705 21.0518 85.6689 21.0518Z" fill="white"/>
<path d="M97.7553 4.55047V20.888H94.4785V4.55047H97.7553Z" fill="white"/>
<path d="M108.764 21.0518C107.235 21.0518 105.83 20.693 104.551 19.9752C103.271 19.2574 102.257 18.2665 101.508 17.0026C100.759 15.723 100.384 14.2797 100.384 12.6724C100.384 11.0808 100.759 9.65302 101.508 8.38909C102.257 7.10955 103.271 6.11088 104.551 5.39309C105.83 4.6753 107.235 4.31641 108.764 4.31641C110.309 4.31641 111.713 4.6753 112.977 5.39309C114.256 6.11088 115.263 7.10955 115.996 8.38909C116.745 9.65302 117.12 11.0808 117.12 12.6724C117.12 14.2797 116.745 15.723 115.996 17.0026C115.263 18.2665 114.256 19.2574 112.977 19.9752C111.697 20.693 110.293 21.0518 108.764 21.0518ZM108.764 18.1261C109.747 18.1261 110.613 17.9076 111.362 17.4707C112.111 17.0182 112.696 16.3784 113.117 15.5514C113.539 14.7244 113.749 13.7647 113.749 12.6724C113.749 11.5801 113.539 10.6283 113.117 9.81687C112.696 8.98985 112.111 8.35788 111.362 7.92096C110.613 7.48405 109.747 7.26559 108.764 7.26559C107.781 7.26559 106.907 7.48405 106.142 7.92096C105.393 8.35788 104.808 8.98985 104.387 9.81687C103.965 10.6283 103.755 11.5801 103.755 12.6724C103.755 13.7647 103.965 14.7244 104.387 15.5514C104.808 16.3784 105.393 17.0182 106.142 17.4707C106.907 17.9076 107.781 18.1261 108.764 18.1261Z" fill="white"/>
<path d="M133.718 20.888H130.442L123.022 9.67643V20.888H119.745V4.52706H123.022L130.442 15.762V4.52706H133.718V20.888Z" fill="white"/>
<path d="M139.825 4.62081V20.8881H137.156V4.62081H139.825Z" fill="white"/>
<path d="M153.322 17.5645H146.511L145.341 20.8881H142.555L148.384 4.59741H151.473L157.301 20.8881H154.493L153.322 17.5645ZM152.573 15.3877L149.928 7.82746L147.26 15.3877H152.573Z" fill="white"/>
<path d="M165.383 21.052C164.29 21.052 163.307 20.8647 162.433 20.4902C161.56 20.1001 160.873 19.554 160.374 18.8518C159.874 18.1496 159.625 17.3304 159.625 16.3941H162.48C162.543 17.0963 162.816 17.6737 163.3 18.1262C163.799 18.5787 164.493 18.805 165.383 18.805C166.303 18.805 167.021 18.5865 167.536 18.1496C168.051 17.6971 168.308 17.1197 168.308 16.4175C168.308 15.8714 168.145 15.4267 167.817 15.0834C167.505 14.7401 167.107 14.4748 166.623 14.2876C166.155 14.1003 165.5 13.8975 164.657 13.679C163.596 13.3981 162.73 13.1173 162.059 12.8364C161.404 12.5399 160.842 12.0874 160.374 11.4788C159.906 10.8703 159.672 10.0589 159.672 9.04459C159.672 8.10834 159.906 7.28912 160.374 6.58694C160.842 5.88475 161.497 5.34641 162.34 4.97191C163.182 4.59741 164.158 4.41016 165.266 4.41016C166.842 4.41016 168.129 4.80806 169.128 5.60387C170.142 6.38408 170.704 7.46077 170.813 8.83393H167.864C167.817 8.24097 167.536 7.73384 167.021 7.31253C166.506 6.89122 165.827 6.68056 164.985 6.68056C164.22 6.68056 163.596 6.87561 163.112 7.26572C162.629 7.65582 162.387 8.21757 162.387 8.95096C162.387 9.4503 162.535 9.86381 162.831 10.1915C163.143 10.5036 163.534 10.7532 164.002 10.9405C164.47 11.1277 165.11 11.3306 165.921 11.5491C166.998 11.8455 167.872 12.142 168.543 12.4385C169.229 12.735 169.806 13.1953 170.275 13.8195C170.758 14.428 171 15.2472 171 16.2771C171 17.1041 170.774 17.8843 170.321 18.6177C169.884 19.3511 169.237 19.9441 168.379 20.3966C167.536 20.8335 166.537 21.052 165.383 21.052Z" fill="white"/>
</svg>

<svg width="171" height="36" fill="none" xmlns="http://www.w3.org/2000/svg"><path fill-rule="evenodd" clip-rule="evenodd" d="M30.96 9.95c.6 8.24-24.99 25.78-24.99 11.29 0-10.73 4.24-17.86 10.38-20.11 1.34-.5 4.7-.54 7.31 0a9.57 9.57 0 0 1 7.3 8.82Z" fill="#fff"/><path fill-rule="evenodd" clip-rule="evenodd" d="M35.77 16.28A26.24 26.24 0 0 1 5.8 30.56a17.7 17.7 0 0 0 29.97-14.28ZM15.26.19C6.55 1.89 0 9.19 0 17.93c0 3.06.8 5.95 2.22 8.47a26.5 26.5 0 0 1-.23-3.47c0-9.58 5.3-17.99 13.27-22.74Z" fill="#fff"/><circle cx="42.22" cy="5.65" r="5.65" fill="#fff"/><path d="M59.1 26.76v5.88h-.76v-5.88h.77Zm6.94 5.88h-.76l-3.09-4.68v4.68h-.77v-5.89h.77l3.09 4.67v-4.67h.76v5.89Zm4.18.06c-.38 0-.73-.07-1.04-.2-.3-.15-.54-.34-.72-.58a1.49 1.49 0 0 1-.27-.85h.82c.03.27.14.5.34.7.2.18.5.28.87.28s.65-.1.86-.27a.9.9 0 0 0 .32-.71.8.8 0 0 0-.18-.55 1.19 1.19 0 0 0-.47-.32 7.25 7.25 0 0 0-.75-.23c-.38-.1-.7-.2-.93-.3-.23-.1-.43-.27-.6-.48a1.43 1.43 0 0 1-.24-.88 1.51 1.51 0 0 1 .92-1.42c.3-.14.64-.2 1.02-.2.55 0 1 .14 1.35.41.35.28.55.64.6 1.1h-.84a.9.9 0 0 0-.36-.6c-.2-.17-.48-.26-.82-.26-.32 0-.59.09-.79.26-.2.16-.3.4-.3.69 0 .21.06.39.18.52.12.14.27.24.44.31.18.07.43.15.75.24.39.1.7.21.94.32a1.38 1.38 0 0 1 .86 1.36c0 .28-.08.55-.23.8-.15.26-.38.46-.67.62-.3.16-.65.24-1.06.24Zm8.02-4.22c0 .5-.16.9-.5 1.22-.33.32-.84.48-1.53.48h-1.13v2.46h-.76v-5.88h1.9c.66 0 1.16.16 1.5.48.35.32.52.74.52 1.24Zm-2.03 1.07c.43 0 .74-.09.95-.28.2-.18.3-.45.3-.79 0-.72-.42-1.08-1.25-1.08h-1.13v2.15h1.13Zm4.76-2.79v5.88h-.76v-5.88h.76Zm5.42 5.88-1.4-2.4h-.93v2.4h-.77v-5.88h1.9c.44 0 .82.08 1.12.23a1.58 1.58 0 0 1 .92 1.5 1.7 1.7 0 0 1-1.4 1.69l1.47 2.46h-.91Zm-2.33-3.02h1.13c.41 0 .73-.1.93-.3.21-.21.32-.49.32-.83 0-.35-.1-.62-.32-.8-.2-.2-.51-.3-.93-.3h-1.13v2.23Zm6.14-2.86v5.88h-.77v-5.88h.77Zm6.93 5.88h-.76l-3.09-4.68v4.68h-.76v-5.89h.76l3.09 4.67v-4.67h.76v5.89Zm6.77-4.17a1.8 1.8 0 0 0-.7-.8 2 2 0 0 0-1.09-.28c-.4 0-.78.1-1.1.28a2 2 0 0 0-.78.81 2.5 2.5 0 0 0-.28 1.22c0 .46.1.86.28 1.2.19.36.45.63.77.82.33.18.7.28 1.11.28a2 2 0 0 0 1.42-.52c.37-.34.59-.8.65-1.39h-2.34v-.62H105v.59a2.93 2.93 0 0 1-1.48 2.28 3 3 0 0 1-2.9-.03 2.88 2.88 0 0 1-1.46-2.61c0-.58.13-1.1.4-1.55a2.94 2.94 0 0 1 2.56-1.46c.62 0 1.17.16 1.64.47.49.3.84.74 1.06 1.3h-.92Zm7.15-1.71v5.88h-.77v-5.88h.77Zm6.93 5.88h-.77l-3.08-4.68v4.68h-.77v-5.89h.77l3.08 4.67v-4.67h.77v5.89Zm6.94 0h-.77l-3.09-4.68v4.68h-.76v-5.89h.77l3.08 4.67v-4.67h.77v5.89Zm4.98.06a2.87 2.87 0 0 1-2.95-3c0-.58.13-1.1.39-1.55a2.94 2.94 0 0 1 2.56-1.46 2.95 2.95 0 0 1 2.56 1.46c.26.45.39.97.39 1.55 0 .57-.13 1.1-.4 1.55a2.82 2.82 0 0 1-2.55 1.45Zm0-.67c.4 0 .78-.1 1.1-.29.33-.19.6-.46.78-.81.19-.36.28-.77.28-1.23 0-.48-.1-.89-.28-1.23a2 2 0 0 0-.77-.82 2.1 2.1 0 0 0-1.11-.29 2.05 2.05 0 0 0-1.89 1.1c-.19.35-.28.76-.28 1.24 0 .46.1.87.28 1.23a2.05 2.05 0 0 0 1.89 1.1Zm9.82-5.27-2.21 5.88h-.89l-2.21-5.88h.81l1.85 5.07 1.84-5.07h.81Zm5.33 4.57h-2.56l-.48 1.3h-.8l2.12-5.83h.88l2.12 5.84h-.81l-.47-1.31Zm-.22-.62-1.06-2.97-1.07 2.97h2.13Zm7.05-3.95v.63h-1.6v5.25h-.77v-5.25h-1.6v-.63h3.97Zm2.72 0v5.88h-.77v-5.88h.77Zm4.98 5.94a2.88 2.88 0 0 1-2.95-3c0-.58.13-1.1.39-1.55a2.94 2.94 0 0 1 2.56-1.46 2.95 2.95 0 0 1 2.56 1.46c.26.45.4.97.4 1.55 0 .57-.14 1.1-.4 1.55a2.8 2.8 0 0 1-2.56 1.45Zm0-.67a2.12 2.12 0 0 0 1.88-1.1c.2-.36.29-.77.29-1.23 0-.48-.1-.89-.29-1.23a2 2 0 0 0-.77-.82c-.32-.2-.7-.29-1.1-.29a2.06 2.06 0 0 0-1.89 1.1c-.2.35-.28.76-.28 1.24 0 .46.09.87.27 1.23a2.06 2.06 0 0 0 1.9 1.1Zm9.59.61h-.76l-3.09-4.68v4.68h-.77v-5.89h.77l3.09 4.67v-4.67h.76v5.89Zm-98-28.09-5.99 16.34H61.2L55.21 4.55h3.51l4.5 13 4.47-13h3.48Zm5.43 0v16.34h-3.27V4.55h3.27Zm9.07 16.5c-1.14 0-2.17-.2-3.1-.58a5.07 5.07 0 0 1-2.14-1.69c-.53-.73-.8-1.6-.82-2.6h3.5c.05.67.29 1.2.71 1.6.44.39 1.03.58 1.78.58.76 0 1.36-.18 1.8-.54.44-.37.66-.86.66-1.45 0-.48-.15-.88-.45-1.2-.3-.3-.67-.55-1.12-.72a14 14 0 0 0-1.83-.6 21.84 21.84 0 0 1-2.6-.92 4.82 4.82 0 0 1-1.7-1.38 4.03 4.03 0 0 1-.7-2.48c0-.97.24-1.81.72-2.53a4.54 4.54 0 0 1 2.04-1.64 7.28 7.28 0 0 1 3-.58 6.4 6.4 0 0 1 4.09 1.24 4.5 4.5 0 0 1 1.75 3.41h-3.6a1.82 1.82 0 0 0-.73-1.38 2.6 2.6 0 0 0-1.75-.56c-.64 0-1.16.17-1.55.5-.37.32-.56.8-.56 1.42 0 .44.14.8.42 1.1.3.28.66.52 1.08.7.44.17 1.04.38 1.82.61 1.07.31 1.93.63 2.6.94.67.31 1.25.78 1.73 1.4.49.63.73 1.45.73 2.46a4.62 4.62 0 0 1-2.67 4.24c-.87.43-1.9.65-3.11.65Zm12.09-16.5v16.34h-3.28V4.55h3.28Zm11 16.5a8.46 8.46 0 0 1-4.2-1.07 8.06 8.06 0 0 1-4.18-7.3 8.24 8.24 0 0 1 8.38-8.36c1.55 0 2.95.36 4.22 1.07a8.24 8.24 0 0 1 4.14 7.28c0 1.61-.38 3.05-1.12 4.33a7.9 7.9 0 0 1-3.02 2.98 8.47 8.47 0 0 1-4.22 1.07Zm0-2.92c.99 0 1.85-.22 2.6-.66a4.65 4.65 0 0 0 1.76-1.92 6.3 6.3 0 0 0 .63-2.88 6.1 6.1 0 0 0-.63-2.85 4.5 4.5 0 0 0-1.76-1.9 5.06 5.06 0 0 0-2.6-.65 5.2 5.2 0 0 0-2.62.65 4.5 4.5 0 0 0-1.75 1.9 6.1 6.1 0 0 0-.64 2.85c0 1.1.22 2.05.64 2.88.42.83 1 1.47 1.75 1.92a5.2 5.2 0 0 0 2.62.66Zm24.96 2.76h-3.28l-7.42-11.21v11.2h-3.27V4.54h3.27l7.42 11.23V4.53h3.28v16.36Zm6.1-16.27V20.9h-2.66V4.62h2.66Zm13.5 12.94h-6.8l-1.18 3.33h-2.78l5.82-16.3h3.1l5.82 16.3h-2.8l-1.18-3.33Zm-.75-2.17-2.64-7.56-2.67 7.56h5.31Zm12.81 5.66a7.53 7.53 0 0 1-2.95-.56 4.92 4.92 0 0 1-2.06-1.64c-.5-.7-.75-1.52-.75-2.46h2.86c.06.7.34 1.28.82 1.74.5.45 1.2.68 2.08.68.92 0 1.64-.22 2.16-.66a2.2 2.2 0 0 0 .77-1.73c0-.55-.16-1-.5-1.34-.3-.34-.7-.6-1.19-.8-.47-.18-1.12-.38-1.96-.6a20.47 20.47 0 0 1-2.6-.84 3.89 3.89 0 0 1-2.39-3.8c0-.93.24-1.75.7-2.45a4.48 4.48 0 0 1 1.97-1.62 7.14 7.14 0 0 1 2.93-.56 6 6 0 0 1 3.86 1.2 4.3 4.3 0 0 1 1.68 3.22h-2.95a2.1 2.1 0 0 0-.84-1.52 3.12 3.12 0 0 0-2.03-.63c-.77 0-1.4.2-1.88.59-.48.39-.72.95-.72 1.68 0 .5.15.91.44 1.24.31.31.7.56 1.17.75.47.19 1.11.4 1.92.6 1.08.3 1.95.6 2.62.9.69.3 1.27.76 1.74 1.38.48.6.72 1.43.72 2.46 0 .82-.23 1.6-.68 2.34a4.8 4.8 0 0 1-1.94 1.78 6.5 6.5 0 0 1-3 .65Z" fill="#fff"/></svg>
